X:1
T:The Seven Virgins
F:http://www.folkinfo.org/songs
B:Vaughan Williams et al, 1928,Oxford Book of Carols, OUP
M:4/4     %Meter
L:1/8     %
K:Gm
G3/2B/ |B2 A3/2G/ F2 A3/2c/ |cc d2 G3
w:All_ un-der the leaves, the_ leaves_ of life,
F |G2 ee c2 Bc | d6
w:I met with_ vir-gins_  sev'n
Bc |d=e d2 c2 d2 |B2 c2 HA2
w:And_ one_ of them was Ma-ry mild
B3/2c/ |d=e dc BG A2 | G6 |]
w:Our_ Lord's_ mo-*ther_ from heav'n
